X:705
T:Reel 705
M:4/4
K:Gmaj
L:1/8
dc|BGAG BGAF|GBdG g2dc|BGAG EGDc|BGAB A2Bc|BGAG BGAF|GBBd g2ge|dBBG AGEF|GBAF G2|dd|gfge fgaf|g2ge eddf|gfge fgaf|bagb a2gf|gfgd egfa|g2gd efge|dBBG AGEF|G2DG G2|
